P3
64 64
255
220 70 50 220 70 50 220 70 50 220 70 50 220 70 50 220 70 50 220 70 50 220 70 50 40 50 70 40 50 70 40 50 70 40 50 70 40 50 70 40 50 70 40 50 70 40 50 70 220 70 50 220 70 50 220 70 50 220 70 50 220 70 50 220 70 50 220 70 50 220 70 50 40 50 70 40 50 70 40 50 70 40 50 70 40 50 70 40 50 70 40 50 70 40 50 70 220 70 50 220 70 50 220 70 50 220 70 50 220 70 50 220 70 50 220 70 50 220 70 50 40 50 70 40 50 70 40 50 70 40 50 70 40 50 70 40 50 70 40 50 70 40 50 70 220 70 50 220 70 50 220 70 50 220 70 50 220 70 50 220 70 50 220 70 50 220 70 50 40 50 70 40 50 70 40 50 70 40 50 70 40 50 70 40 50 70 40 50 70 40 50 70
220 70 50 220 70 50 220 70 50 220 70 50 220 70 50 220 70 50 220 70 50 220 70 50 40 50 70 40 50 70 40 50 70 40 50 70 40 50 70 40 50 70 40 50 70 40 50 70 220 70 50 220 70 50 220 70 50 220 70 50 220 70 50 220 70 50 220 70 50 220 70 50 40 50 70 40 50 70 40 50 70 40 50 70 40 50 70 40 50 70 40 50 70 40 50 70 220 70 50 220 70 50 220 70 50 220 70 50 220 70 50 220 70 50 220 70 50 220 70 50 40 50 70 40 50 70 40 50 70 40 50 70 40 50 70 40 50 70 40 50 70 40 50 70 220 70 50 220 70 50 220 70 50 220 70 50 220 70 50 220 70 50 220 70 50 220 70 50 40 50 70 40 50 70 40 50 70 40 50 70 40 50 70 40 50 70 40 50 70 40 50 70
220 70 50 220 70 50 220 70 50 220 70 50 220 70 50 220 70 50 220 70 50 220 70 50 40 50 70 40 50 70 40 50 70 40 50 70 40 50 70 40 50 70 40 50 70 40 50 70 220 70 50 220 70 50 220 70 50 220 70 50 220 70 50 220 70 50 220 70 50 220 70 50 40 50 70 40 50 70 40 50 70 40 50 70 40 50 70 40 50 70 40 50 70 40 50 70 220 70 50 220 70 50 220 70 50 220 70 50 220 70 50 220 70 50 220 70 50 220 70 50 40 50 70 40 50 70 40 50 70 40 50 70 40 50 70 40 50 70 40 50 70 40 50 70 220 70 50 220 70 50 220 70 50 220 70 50 220 70 50 220 70 50 220 70 50 220 70 50 40 50 70 40 50 70 40 50 70 40 50 70 40 50 70 40 50 70 40 50 70 40 50 70
220 70 50 220 70 50 220 70 50 220 70 50 220 70 50 220 70 50 220 70 50 220 70 50 40 50 70 40 50 70 40 50 70 40 50 70 40 50 70 40 50 70 40 50 70 40 50 70 220 70 50 220 70 50 220 70 50 220 70 50 220 70 50 220 70 50 220 70 50 220 70 50 40 50 70 40 50 70 40 50 70 40 50 70 40 50 70 40 50 70 40 50 70 40 50 70 220 70 50 220 70 50 220 70 50 220 70 50 220 70 50 220 70 50 220 70 50 220 70 50 40 50 70 40 50 70 40 50 70 40 50 70 40 50 70 40 50 70 40 50 70 40 50 70 220 70 50 220 70 50 220 70 50 220 70 50 220 70 50 220 70 50 220 70 50 220 70 50 40 50 70 40 50 70 40 50 70 40 50 70 40 50 70 40 50 70 40 50 70 40 50 70
220 70 50 220 70 50 220 70 50 220 70 50 220 70 50 220 70 50 220 70 50 220 70 50 40 50 70 40 50 70 40 50 70 40 50 70 40 50 70 40 50 70 40 50 70 40 50 70 220 70 50 220 70 50 220 70 50 220 70 50 220 70 50 220 70 50 220 70 50 220 70 50 40 50 70 40 50 70 40 50 70 40 50 70 40 50 70 40 50 70 40 50 70 40 50 70 220 70 50 220 70 50 220 70 50 220 70 50 220 70 50 220 70 50 220 70 50 220 70 50 40 50 70 40 50 70 40 50 70 40 50 70 40 50 70 40 50 70 40 50 70 40 50 70 220 70 50 220 70 50 220 70 50 220 70 50 220 70 50 220 70 50 220 70 50 220 70 50 40 50 70 40 50 70 40 50 70 40 50 70 40 50 70 40 50 70 40 50 70 40 50 70
220 70 50 220 70 50 220 70 50 220 70 50 220 70 50 220 70 50 220 70 50 220 70 50 40 50 70 40 50 70 40 50 70 40 50 70 40 50 70 40 50 70 40 50 70 40 50 70 220 70 50 220 70 50 220 70 50 220 70 50 220 70 50 220 70 50 220 70 50 220 70 50 40 50 70 40 50 70 40 50 70 40 50 70 40 50 70 40 50 70 40 50 70 40 50 70 220 70 50 220 70 50 220 70 50 220 70 50 220 70 50 220 70 50 220 70 50 220 70 50 40 50 70 40 50 70 40 50 70 40 50 70 40 50 70 40 50 70 40 50 70 40 50 70 220 70 50 220 70 50 220 70 50 220 70 50 220 70 50 220 70 50 220 70 50 220 70 50 40 50 70 40 50 70 40 50 70 40 50 70 40 50 70 40 50 70 40 50 70 40 50 70
220 70 50 220 70 50 220 70 50 220 70 50 220 70 50 220 70 50 220 70 50 220 70 50 40 50 70 40 50 70 40 50 70 40 50 70 40 50 70 40 50 70 40 50 70 40 50 70 220 70 50 220 70 50 220 70 50 220 70 50 220 70 50 220 70 50 220 70 50 220 70 50 40 50 70 40 50 70 40 50 70 40 50 70 40 50 70 40 50 70 40 50 70 40 50 70 220 70 50 220 70 50 220 70 50 220 70 50 220 70 50 220 70 50 220 70 50 220 70 50 40 50 70 40 50 70 40 50 70 40 50 70 40 50 70 40 50 70 40 50 70 40 50 70 220 70 50 220 70 50 220 70 50 220 70 50 220 70 50 220 70 50 220 70 50 220 70 50 40 50 70 40 50 70 40 50 70 40 50 70 40 50 70 40 50 70 40 50 70 40 50 70
220 70 50 220 70 50 220 70 50 220 70 50 220 70 50 220 70 50 220 70 50 220 70 50 40 50 70 40 50 70 40 50 70 40 50 70 40 50 70 40 50 70 40 50 70 40 50 70 220 70 50 220 70 50 220 70 50 220 70 50 220 70 50 220 70 50 220 70 50 220 70 50 40 50 70 40 50 70 40 50 70 40 50 70 40 50 70 40 50 70 40 50 70 40 50 70 220 70 50 220 70 50 220 70 50 220 70 50 220 70 50 220 70 50 220 70 50 220 70 50 40 50 70 40 50 70 40 50 70 40 50 70 40 50 70 40 50 70 40 50 70 40 50 70 220 70 50 220 70 50 220 70 50 220 70 50 220 70 50 220 70 50 220 70 50 220 70 50 40 50 70 40 50 70 40 50 70 40 50 70 40 50 70 40 50 70 40 50 70 40 50 70
40 50 70 40 50 70 40 50 70 40 50 70 40 50 70 40 50 70 40 50 70 40 50 70 220 70 50 220 70 50 220 70 50 220 70 50 220 70 50 220 70 50 220 70 50 220 70 50 40 50 70 40 50 70 40 50 70 40 50 70 40 50 70 40 50 70 40 50 70 40 50 70 220 70 50 220 70 50 220 70 50 220 70 50 220 70 50 220 70 50 220 70 50 220 70 50 40 50 70 40 50 70 40 50 70 40 50 70 40 50 70 40 50 70 40 50 70 40 50 70 220 70 50 220 70 50 220 70 50 220 70 50 220 70 50 220 70 50 220 70 50 220 70 50 40 50 70 40 50 70 40 50 70 40 50 70 40 50 70 40 50 70 40 50 70 40 50 70 220 70 50 220 70 50 220 70 50 220 70 50 220 70 50 220 70 50 220 70 50 220 70 50
40 50 70 40 50 70 40 50 70 40 50 70 40 50 70 40 50 70 40 50 70 40 50 70 220 70 50 220 70 50 220 70 50 220 70 50 220 70 50 220 70 50 220 70 50 220 70 50 40 50 70 40 50 70 40 50 70 40 50 70 40 50 70 40 50 70 40 50 70 40 50 70 220 70 50 220 70 50 220 70 50 220 70 50 220 70 50 220 70 50 220 70 50 220 70 50 40 50 70 40 50 70 40 50 70 40 50 70 40 50 70 40 50 70 40 50 70 40 50 70 220 70 50 220 70 50 220 70 50 220 70 50 220 70 50 220 70 50 220 70 50 220 70 50 40 50 70 40 50 70 40 50 70 40 50 70 40 50 70 40 50 70 40 50 70 40 50 70 220 70 50 220 70 50 220 70 50 220 70 50 220 70 50 220 70 50 220 70 50 220 70 50
40 50 70 40 50 70 40 50 70 40 50 70 40 50 70 40 50 70 40 50 70 40 50 70 220 70 50 220 70 50 220 70 50 220 70 50 220 70 50 220 70 50 220 70 50 220 70 50 40 50 70 40 50 70 40 50 70 40 50 70 40 50 70 40 50 70 40 50 70 40 50 70 220 70 50 220 70 50 220 70 50 220 70 50 220 70 50 220 70 50 220 70 50 220 70 50 40 50 70 40 50 70 40 50 70 40 50 70 40 50 70 40 50 70 40 50 70 40 50 70 220 70 50 220 70 50 220 70 50 220 70 50 220 70 50 220 70 50 220 70 50 220 70 50 40 50 70 40 50 70 40 50 70 40 50 70 40 50 70 40 50 70 40 50 70 40 50 70 220 70 50 220 70 50 220 70 50 220 70 50 220 70 50 220 70 50 220 70 50 220 70 50
40 50 70 40 50 70 40 50 70 40 50 70 40 50 70 40 50 70 40 50 70 40 50 70 220 70 50 220 70 50 220 70 50 220 70 50 220 70 50 220 70 50 220 70 50 220 70 50 40 50 70 40 50 70 40 50 70 40 50 70 40 50 70 40 50 70 40 50 70 40 50 70 220 70 50 220 70 50 220 70 50 220 70 50 220 70 50 220 70 50 220 70 50 220 70 50 40 50 70 40 50 70 40 50 70 40 50 70 40 50 70 40 50 70 40 50 70 40 50 70 220 70 50 220 70 50 220 70 50 220 70 50 220 70 50 220 70 50 220 70 50 220 70 50 40 50 70 40 50 70 40 50 70 40 50 70 40 50 70 40 50 70 40 50 70 40 50 70 220 70 50 220 70 50 220 70 50 220 70 50 220 70 50 220 70 50 220 70 50 220 70 50
40 50 70 40 50 70 40 50 70 40 50 70 40 50 70 40 50 70 40 50 70 40 50 70 220 70 50 220 70 50 220 70 50 220 70 50 220 70 50 220 70 50 220 70 50 220 70 50 40 50 70 40 50 70 40 50 70 40 50 70 40 50 70 40 50 70 40 50 70 40 50 70 220 70 50 220 70 50 220 70 50 220 70 50 220 70 50 220 70 50 220 70 50 220 70 50 40 50 70 40 50 70 40 50 70 40 50 70 40 50 70 40 50 70 40 50 70 40 50 70 220 70 50 220 70 50 220 70 50 220 70 50 220 70 50 220 70 50 220 70 50 220 70 50 40 50 70 40 50 70 40 50 70 40 50 70 40 50 70 40 50 70 40 50 70 40 50 70 220 70 50 220 70 50 220 70 50 220 70 50 220 70 50 220 70 50 220 70 50 220 70 50
40 50 70 40 50 70 40 50 70 40 50 70 40 50 70 40 50 70 40 50 70 40 50 70 220 70 50 220 70 50 220 70 50 220 70 50 220 70 50 220 70 50 220 70 50 220 70 50 40 50 70 40 50 70 40 50 70 40 50 70 40 50 70 40 50 70 40 50 70 40 50 70 220 70 50 220 70 50 220 70 50 220 70 50 220 70 50 220 70 50 220 70 50 220 70 50 40 50 70 40 50 70 40 50 70 40 50 70 40 50 70 40 50 70 40 50 70 40 50 70 220 70 50 220 70 50 220 70 50 220 70 50 220 70 50 220 70 50 220 70 50 220 70 50 40 50 70 40 50 70 40 50 70 40 50 70 40 50 70 40 50 70 40 50 70 40 50 70 220 70 50 220 70 50 220 70 50 220 70 50 220 70 50 220 70 50 220 70 50 220 70 50
40 50 70 40 50 70 40 50 70 40 50 70 40 50 70 40 50 70 40 50 70 40 50 70 220 70 50 220 70 50 220 70 50 220 70 50 220 70 50 220 70 50 220 70 50 220 70 50 40 50 70 40 50 70 40 50 70 40 50 70 40 50 70 40 50 70 40 50 70 40 50 70 220 70 50 220 70 50 220 70 50 220 70 50 220 70 50 220 70 50 220 70 50 220 70 50 40 50 70 40 50 70 40 50 70 40 50 70 40 50 70 40 50 70 40 50 70 40 50 70 220 70 50 220 70 50 220 70 50 220 70 50 220 70 50 220 70 50 220 70 50 220 70 50 40 50 70 40 50 70 40 50 70 40 50 70 40 50 70 40 50 70 40 50 70 40 50 70 220 70 50 220 70 50 220 70 50 220 70 50 220 70 50 220 70 50 220 70 50 220 70 50
40 50 70 40 50 70 40 50 70 40 50 70 40 50 70 40 50 70 40 50 70 40 50 70 220 70 50 220 70 50 220 70 50 220 70 50 220 70 50 220 70 50 220 70 50 220 70 50 40 50 70 40 50 70 40 50 70 40 50 70 40 50 70 40 50 70 40 50 70 40 50 70 220 70 50 220 70 50 220 70 50 220 70 50 220 70 50 220 70 50 220 70 50 220 70 50 40 50 70 40 50 70 40 50 70 40 50 70 40 50 70 40 50 70 40 50 70 40 50 70 220 70 50 220 70 50 220 70 50 220 70 50 220 70 50 220 70 50 220 70 50 220 70 50 40 50 70 40 50 70 40 50 70 40 50 70 40 50 70 40 50 70 40 50 70 40 50 70 220 70 50 220 70 50 220 70 50 220 70 50 220 70 50 220 70 50 220 70 50 220 70 50
220 70 50 220 70 50 220 70 50 220 70 50 220 70 50 220 70 50 220 70 50 220 70 50 40 50 70 40 50 70 40 50 70 40 50 70 40 50 70 40 50 70 40 50 70 40 50 70 220 70 50 220 70 50 220 70 50 220 70 50 220 70 50 220 70 50 220 70 50 220 70 50 40 50 70 40 50 70 40 50 70 40 50 70 40 50 70 40 50 70 40 50 70 40 50 70 220 70 50 220 70 50 220 70 50 220 70 50 220 70 50 220 70 50 220 70 50 220 70 50 40 50 70 40 50 70 40 50 70 40 50 70 40 50 70 40 50 70 40 50 70 40 50 70 220 70 50 220 70 50 220 70 50 220 70 50 220 70 50 220 70 50 220 70 50 220 70 50 40 50 70 40 50 70 40 50 70 40 50 70 40 50 70 40 50 70 40 50 70 40 50 70
220 70 50 220 70 50 220 70 50 220 70 50 220 70 50 220 70 50 220 70 50 220 70 50 40 50 70 40 50 70 40 50 70 40 50 70 40 50 70 40 50 70 40 50 70 40 50 70 220 70 50 220 70 50 220 70 50 220 70 50 220 70 50 220 70 50 220 70 50 220 70 50 40 50 70 40 50 70 40 50 70 40 50 70 40 50 70 40 50 70 40 50 70 40 50 70 220 70 50 220 70 50 220 70 50 220 70 50 220 70 50 220 70 50 220 70 50 220 70 50 40 50 70 40 50 70 40 50 70 40 50 70 40 50 70 40 50 70 40 50 70 40 50 70 220 70 50 220 70 50 220 70 50 220 70 50 220 70 50 220 70 50 220 70 50 220 70 50 40 50 70 40 50 70 40 50 70 40 50 70 40 50 70 40 50 70 40 50 70 40 50 70
220 70 50 220 70 50 220 70 50 220 70 50 220 70 50 220 70 50 220 70 50 220 70 50 40 50 70 40 50 70 40 50 70 40 50 70 40 50 70 40 50 70 40 50 70 40 50 70 220 70 50 220 70 50 220 70 50 220 70 50 220 70 50 220 70 50 220 70 50 220 70 50 40 50 70 40 50 70 40 50 70 40 50 70 40 50 70 40 50 70 40 50 70 40 50 70 220 70 50 220 70 50 220 70 50 220 70 50 220 70 50 220 70 50 220 70 50 220 70 50 40 50 70 40 50 70 40 50 70 40 50 70 40 50 70 40 50 70 40 50 70 40 50 70 220 70 50 220 70 50 220 70 50 220 70 50 220 70 50 220 70 50 220 70 50 220 70 50 40 50 70 40 50 70 40 50 70 40 50 70 40 50 70 40 50 70 40 50 70 40 50 70
220 70 50 220 70 50 220 70 50 220 70 50 220 70 50 220 70 50 220 70 50 220 70 50 40 50 70 40 50 70 40 50 70 40 50 70 40 50 70 40 50 70 40 50 70 40 50 70 220 70 50 220 70 50 220 70 50 220 70 50 220 70 50 220 70 50 220 70 50 220 70 50 40 50 70 40 50 70 40 50 70 40 50 70 40 50 70 40 50 70 40 50 70 40 50 70 220 70 50 220 70 50 220 70 50 220 70 50 220 70 50 220 70 50 220 70 50 220 70 50 40 50 70 40 50 70 40 50 70 40 50 70 40 50 70 40 50 70 40 50 70 40 50 70 220 70 50 220 70 50 220 70 50 220 70 50 220 70 50 220 70 50 220 70 50 220 70 50 40 50 70 40 50 70 40 50 70 40 50 70 40 50 70 40 50 70 40 50 70 40 50 70
220 70 50 220 70 50 220 70 50 220 70 50 220 70 50 220 70 50 220 70 50 220 70 50 40 50 70 40 50 70 40 50 70 40 50 70 40 50 70 40 50 70 40 50 70 40 50 70 220 70 50 220 70 50 220 70 50 220 70 50 220 70 50 220 70 50 220 70 50 220 70 50 40 50 70 40 50 70 40 50 70 40 50 70 40 50 70 40 50 70 40 50 70 40 50 70 220 70 50 220 70 50 220 70 50 220 70 50 220 70 50 220 70 50 220 70 50 220 70 50 40 50 70 40 50 70 40 50 70 40 50 70 40 50 70 40 50 70 40 50 70 40 50 70 220 70 50 220 70 50 220 70 50 220 70 50 220 70 50 220 70 50 220 70 50 220 70 50 40 50 70 40 50 70 40 50 70 40 50 70 40 50 70 40 50 70 40 50 70 40 50 70
220 70 50 220 70 50 220 70 50 220 70 50 220 70 50 220 70 50 220 70 50 220 70 50 40 50 70 40 50 70 40 50 70 40 50 70 40 50 70 40 50 70 40 50 70 40 50 70 220 70 50 220 70 50 220 70 50 220 70 50 220 70 50 220 70 50 220 70 50 220 70 50 40 50 70 40 50 70 40 50 70 40 50 70 40 50 70 40 50 70 40 50 70 40 50 70 220 70 50 220 70 50 220 70 50 220 70 50 220 70 50 220 70 50 220 70 50 220 70 50 40 50 70 40 50 70 40 50 70 40 50 70 40 50 70 40 50 70 40 50 70 40 50 70 220 70 50 220 70 50 220 70 50 220 70 50 220 70 50 220 70 50 220 70 50 220 70 50 40 50 70 40 50 70 40 50 70 40 50 70 40 50 70 40 50 70 40 50 70 40 50 70
220 70 50 220 70 50 220 70 50 220 70 50 220 70 50 220 70 50 220 70 50 220 70 50 40 50 70 40 50 70 40 50 70 40 50 70 40 50 70 40 50 70 40 50 70 40 50 70 220 70 50 220 70 50 220 70 50 220 70 50 220 70 50 220 70 50 220 70 50 220 70 50 40 50 70 40 50 70 40 50 70 40 50 70 40 50 70 40 50 70 40 50 70 40 50 70 220 70 50 220 70 50 220 70 50 220 70 50 220 70 50 220 70 50 220 70 50 220 70 50 40 50 70 40 50 70 40 50 70 40 50 70 40 50 70 40 50 70 40 50 70 40 50 70 220 70 50 220 70 50 220 70 50 220 70 50 220 70 50 220 70 50 220 70 50 220 70 50 40 50 70 40 50 70 40 50 70 40 50 70 40 50 70 40 50 70 40 50 70 40 50 70
220 70 50 220 70 50 220 70 50 220 70 50 220 70 50 220 70 50 220 70 50 220 70 50 40 50 70 40 50 70 40 50 70 40 50 70 40 50 70 40 50 70 40 50 70 40 50 70 220 70 50 220 70 50 220 70 50 220 70 50 220 70 50 220 70 50 220 70 50 220 70 50 40 50 70 40 50 70 40 50 70 40 50 70 40 50 70 40 50 70 40 50 70 40 50 70 220 70 50 220 70 50 220 70 50 220 70 50 220 70 50 220 70 50 220 70 50 220 70 50 40 50 70 40 50 70 40 50 70 40 50 70 40 50 70 40 50 70 40 50 70 40 50 70 220 70 50 220 70 50 220 70 50 220 70 50 220 70 50 220 70 50 220 70 50 220 70 50 40 50 70 40 50 70 40 50 70 40 50 70 40 50 70 40 50 70 40 50 70 40 50 70
40 50 70 40 50 70 40 50 70 40 50 70 40 50 70 40 50 70 40 50 70 40 50 70 220 70 50 220 70 50 220 70 50 220 70 50 220 70 50 220 70 50 220 70 50 220 70 50 40 50 70 40 50 70 40 50 70 40 50 70 40 50 70 40 50 70 40 50 70 40 50 70 220 70 50 220 70 50 220 70 50 220 70 50 220 70 50 220 70 50 220 70 50 220 70 50 40 50 70 40 50 70 40 50 70 40 50 70 40 50 70 40 50 70 40 50 70 40 50 70 220 70 50 220 70 50 220 70 50 220 70 50 220 70 50 220 70 50 220 70 50 220 70 50 40 50 70 40 50 70 40 50 70 40 50 70 40 50 70 40 50 70 40 50 70 40 50 70 220 70 50 220 70 50 220 70 50 220 70 50 220 70 50 220 70 50 220 70 50 220 70 50
40 50 70 40 50 70 40 50 70 40 50 70 40 50 70 40 50 70 40 50 70 40 50 70 220 70 50 220 70 50 220 70 50 220 70 50 220 70 50 220 70 50 220 70 50 220 70 50 40 50 70 40 50 70 40 50 70 40 50 70 40 50 70 40 50 70 40 50 70 40 50 70 220 70 50 220 70 50 220 70 50 220 70 50 220 70 50 220 70 50 220 70 50 220 70 50 40 50 70 40 50 70 40 50 70 40 50 70 40 50 70 40 50 70 40 50 70 40 50 70 220 70 50 220 70 50 220 70 50 220 70 50 220 70 50 220 70 50 220 70 50 220 70 50 40 50 70 40 50 70 40 50 70 40 50 70 40 50 70 40 50 70 40 50 70 40 50 70 220 70 50 220 70 50 220 70 50 220 70 50 220 70 50 220 70 50 220 70 50 220 70 50
40 50 70 40 50 70 40 50 70 40 50 70 40 50 70 40 50 70 40 50 70 40 50 70 220 70 50 220 70 50 220 70 50 220 70 50 220 70 50 220 70 50 220 70 50 220 70 50 40 50 70 40 50 70 40 50 70 40 50 70 40 50 70 40 50 70 40 50 70 40 50 70 220 70 50 220 70 50 220 70 50 220 70 50 220 70 50 220 70 50 220 70 50 220 70 50 40 50 70 40 50 70 40 50 70 40 50 70 40 50 70 40 50 70 40 50 70 40 50 70 220 70 50 220 70 50 220 70 50 220 70 50 220 70 50 220 70 50 220 70 50 220 70 50 40 50 70 40 50 70 40 50 70 40 50 70 40 50 70 40 50 70 40 50 70 40 50 70 220 70 50 220 70 50 220 70 50 220 70 50 220 70 50 220 70 50 220 70 50 220 70 50
40 50 70 40 50 70 40 50 70 40 50 70 40 50 70 40 50 70 40 50 70 40 50 70 220 70 50 220 70 50 220 70 50 220 70 50 220 70 50 220 70 50 220 70 50 220 70 50 40 50 70 40 50 70 40 50 70 40 50 70 40 50 70 40 50 70 40 50 70 40 50 70 220 70 50 220 70 50 220 70 50 220 70 50 220 70 50 220 70 50 220 70 50 220 70 50 40 50 70 40 50 70 40 50 70 40 50 70 40 50 70 40 50 70 40 50 70 40 50 70 220 70 50 220 70 50 220 70 50 220 70 50 220 70 50 220 70 50 220 70 50 220 70 50 40 50 70 40 50 70 40 50 70 40 50 70 40 50 70 40 50 70 40 50 70 40 50 70 220 70 50 220 70 50 220 70 50 220 70 50 220 70 50 220 70 50 220 70 50 220 70 50
40 50 70 40 50 70 40 50 70 40 50 70 40 50 70 40 50 70 40 50 70 40 50 70 220 70 50 220 70 50 220 70 50 220 70 50 220 70 50 220 70 50 220 70 50 220 70 50 40 50 70 40 50 70 40 50 70 40 50 70 40 50 70 40 50 70 40 50 70 40 50 70 220 70 50 220 70 50 220 70 50 220 70 50 220 70 50 220 70 50 220 70 50 220 70 50 40 50 70 40 50 70 40 50 70 40 50 70 40 50 70 40 50 70 40 50 70 40 50 70 220 70 50 220 70 50 220 70 50 220 70 50 220 70 50 220 70 50 220 70 50 220 70 50 40 50 70 40 50 70 40 50 70 40 50 70 40 50 70 40 50 70 40 50 70 40 50 70 220 70 50 220 70 50 220 70 50 220 70 50 220 70 50 220 70 50 220 70 50 220 70 50
40 50 70 40 50 70 40 50 70 40 50 70 40 50 70 40 50 70 40 50 70 40 50 70 220 70 50 220 70 50 220 70 50 220 70 50 220 70 50 220 70 50 220 70 50 220 70 50 40 50 70 40 50 70 40 50 70 40 50 70 40 50 70 40 50 70 40 50 70 40 50 70 220 70 50 220 70 50 220 70 50 220 70 50 220 70 50 220 70 50 220 70 50 220 70 50 40 50 70 40 50 70 40 50 70 40 50 70 40 50 70 40 50 70 40 50 70 40 50 70 220 70 50 220 70 50 220 70 50 220 70 50 220 70 50 220 70 50 220 70 50 220 70 50 40 50 70 40 50 70 40 50 70 40 50 70 40 50 70 40 50 70 40 50 70 40 50 70 220 70 50 220 70 50 220 70 50 220 70 50 220 70 50 220 70 50 220 70 50 220 70 50
40 50 70 40 50 70 40 50 70 40 50 70 40 50 70 40 50 70 40 50 70 40 50 70 220 70 50 220 70 50 220 70 50 220 70 50 220 70 50 220 70 50 220 70 50 220 70 50 40 50 70 40 50 70 40 50 70 40 50 70 40 50 70 40 50 70 40 50 70 40 50 70 220 70 50 220 70 50 220 70 50 220 70 50 220 70 50 220 70 50 220 70 50 220 70 50 40 50 70 40 50 70 40 50 70 40 50 70 40 50 70 40 50 70 40 50 70 40 50 70 220 70 50 220 70 50 220 70 50 220 70 50 220 70 50 220 70 50 220 70 50 220 70 50 40 50 70 40 50 70 40 50 70 40 50 70 40 50 70 40 50 70 40 50 70 40 50 70 220 70 50 220 70 50 220 70 50 220 70 50 220 70 50 220 70 50 220 70 50 220 70 50
40 50 70 40 50 70 40 50 70 40 50 70 40 50 70 40 50 70 40 50 70 40 50 70 220 70 50 220 70 50 220 70 50 220 70 50 220 70 50 220 70 50 220 70 50 220 70 50 40 50 70 40 50 70 40 50 70 40 50 70 40 50 70 40 50 70 40 50 70 40 50 70 220 70 50 220 70 50 220 70 50 220 70 50 220 70 50 220 70 50 220 70 50 220 70 50 40 50 70 40 50 70 40 50 70 40 50 70 40 50 70 40 50 70 40 50 70 40 50 70 220 70 50 220 70 50 220 70 50 220 70 50 220 70 50 220 70 50 220 70 50 220 70 50 40 50 70 40 50 70 40 50 70 40 50 70 40 50 70 40 50 70 40 50 70 40 50 70 220 70 50 220 70 50 220 70 50 220 70 50 220 70 50 220 70 50 220 70 50 220 70 50
220 70 50 220 70 50 220 70 50 220 70 50 220 70 50 220 70 50 220 70 50 220 70 50 40 50 70 40 50 70 40 50 70 40 50 70 40 50 70 40 50 70 40 50 70 40 50 70 220 70 50 220 70 50 220 70 50 220 70 50 220 70 50 220 70 50 220 70 50 220 70 50 40 50 70 40 50 70 40 50 70 40 50 70 40 50 70 40 50 70 40 50 70 40 50 70 220 70 50 220 70 50 220 70 50 220 70 50 220 70 50 220 70 50 220 70 50 220 70 50 40 50 70 40 50 70 40 50 70 40 50 70 40 50 70 40 50 70 40 50 70 40 50 70 220 70 50 220 70 50 220 70 50 220 70 50 220 70 50 220 70 50 220 70 50 220 70 50 40 50 70 40 50 70 40 50 70 40 50 70 40 50 70 40 50 70 40 50 70 40 50 70
220 70 50 220 70 50 220 70 50 220 70 50 220 70 50 220 70 50 220 70 50 220 70 50 40 50 70 40 50 70 40 50 70 40 50 70 40 50 70 40 50 70 40 50 70 40 50 70 220 70 50 220 70 50 220 70 50 220 70 50 220 70 50 220 70 50 220 70 50 220 70 50 40 50 70 40 50 70 40 50 70 40 50 70 40 50 70 40 50 70 40 50 70 40 50 70 220 70 50 220 70 50 220 70 50 220 70 50 220 70 50 220 70 50 220 70 50 220 70 50 40 50 70 40 50 70 40 50 70 40 50 70 40 50 70 40 50 70 40 50 70 40 50 70 220 70 50 220 70 50 220 70 50 220 70 50 220 70 50 220 70 50 220 70 50 220 70 50 40 50 70 40 50 70 40 50 70 40 50 70 40 50 70 40 50 70 40 50 70 40 50 70
220 70 50 220 70 50 220 70 50 220 70 50 220 70 50 220 70 50 220 70 50 220 70 50 40 50 70 40 50 70 40 50 70 40 50 70 40 50 70 40 50 70 40 50 70 40 50 70 220 70 50 220 70 50 220 70 50 220 70 50 220 70 50 220 70 50 220 70 50 220 70 50 40 50 70 40 50 70 40 50 70 40 50 70 40 50 70 40 50 70 40 50 70 40 50 70 220 70 50 220 70 50 220 70 50 220 70 50 220 70 50 220 70 50 220 70 50 220 70 50 40 50 70 40 50 70 40 50 70 40 50 70 40 50 70 40 50 70 40 50 70 40 50 70 220 70 50 220 70 50 220 70 50 220 70 50 220 70 50 220 70 50 220 70 50 220 70 50 40 50 70 40 50 70 40 50 70 40 50 70 40 50 70 40 50 70 40 50 70 40 50 70
220 70 50 220 70 50 220 70 50 220 70 50 220 70 50 220 70 50 220 70 50 220 70 50 40 50 70 40 50 70 40 50 70 40 50 70 40 50 70 40 50 70 40 50 70 40 50 70 220 70 50 220 70 50 220 70 50 220 70 50 220 70 50 220 70 50 220 70 50 220 70 50 40 50 70 40 50 70 40 50 70 40 50 70 40 50 70 40 50 70 40 50 70 40 50 70 220 70 50 220 70 50 220 70 50 220 70 50 220 70 50 220 70 50 220 70 50 220 70 50 40 50 70 40 50 70 40 50 70 40 50 70 40 50 70 40 50 70 40 50 70 40 50 70 220 70 50 220 70 50 220 70 50 220 70 50 220 70 50 220 70 50 220 70 50 220 70 50 40 50 70 40 50 70 40 50 70 40 50 70 40 50 70 40 50 70 40 50 70 40 50 70
220 70 50 220 70 50 220 70 50 220 70 50 220 70 50 220 70 50 220 70 50 220 70 50 40 50 70 40 50 70 40 50 70 40 50 70 40 50 70 40 50 70 40 50 70 40 50 70 220 70 50 220 70 50 220 70 50 220 70 50 220 70 50 220 70 50 220 70 50 220 70 50 40 50 70 40 50 70 40 50 70 40 50 70 40 50 70 40 50 70 40 50 70 40 50 70 220 70 50 220 70 50 220 70 50 220 70 50 220 70 50 220 70 50 220 70 50 220 70 50 40 50 70 40 50 70 40 50 70 40 50 70 40 50 70 40 50 70 40 50 70 40 50 70 220 70 50 220 70 50 220 70 50 220 70 50 220 70 50 220 70 50 220 70 50 220 70 50 40 50 70 40 50 70 40 50 70 40 50 70 40 50 70 40 50 70 40 50 70 40 50 70
220 70 50 220 70 50 220 70 50 220 70 50 220 70 50 220 70 50 220 70 50 220 70 50 40 50 70 40 50 70 40 50 70 40 50 70 40 50 70 40 50 70 40 50 70 40 50 70 220 70 50 220 70 50 220 70 50 220 70 50 220 70 50 220 70 50 220 70 50 220 70 50 40 50 70 40 50 70 40 50 70 40 50 70 40 50 70 40 50 70 40 50 70 40 50 70 220 70 50 220 70 50 220 70 50 220 70 50 220 70 50 220 70 50 220 70 50 220 70 50 40 50 70 40 50 70 40 50 70 40 50 70 40 50 70 40 50 70 40 50 70 40 50 70 220 70 50 220 70 50 220 70 50 220 70 50 220 70 50 220 70 50 220 70 50 220 70 50 40 50 70 40 50 70 40 50 70 40 50 70 40 50 70 40 50 70 40 50 70 40 50 70
220 70 50 220 70 50 220 70 50 220 70 50 220 70 50 220 70 50 220 70 50 220 70 50 40 50 70 40 50 70 40 50 70 40 50 70 40 50 70 40 50 70 40 50 70 40 50 70 220 70 50 220 70 50 220 70 50 220 70 50 220 70 50 220 70 50 220 70 50 220 70 50 40 50 70 40 50 70 40 50 70 40 50 70 40 50 70 40 50 70 40 50 70 40 50 70 220 70 50 220 70 50 220 70 50 220 70 50 220 70 50 220 70 50 220 70 50 220 70 50 40 50 70 40 50 70 40 50 70 40 50 70 40 50 70 40 50 70 40 50 70 40 50 70 220 70 50 220 70 50 220 70 50 220 70 50 220 70 50 220 70 50 220 70 50 220 70 50 40 50 70 40 50 70 40 50 70 40 50 70 40 50 70 40 50 70 40 50 70 40 50 70
220 70 50 220 70 50 220 70 50 220 70 50 220 70 50 220 70 50 220 70 50 220 70 50 40 50 70 40 50 70 40 50 70 40 50 70 40 50 70 40 50 70 40 50 70 40 50 70 220 70 50 220 70 50 220 70 50 220 70 50 220 70 50 220 70 50 220 70 50 220 70 50 40 50 70 40 50 70 40 50 70 40 50 70 40 50 70 40 50 70 40 50 70 40 50 70 220 70 50 220 70 50 220 70 50 220 70 50 220 70 50 220 70 50 220 70 50 220 70 50 40 50 70 40 50 70 40 50 70 40 50 70 40 50 70 40 50 70 40 50 70 40 50 70 220 70 50 220 70 50 220 70 50 220 70 50 220 70 50 220 70 50 220 70 50 220 70 50 40 50 70 40 50 70 40 50 70 40 50 70 40 50 70 40 50 70 40 50 70 40 50 70
40 50 70 40 50 70 40 50 70 40 50 70 40 50 70 40 50 70 40 50 70 40 50 70 220 70 50 220 70 50 220 70 50 220 70 50 220 70 50 220 70 50 220 70 50 220 70 50 40 50 70 40 50 70 40 50 70 40 50 70 40 50 70 40 50 70 40 50 70 40 50 70 220 70 50 220 70 50 220 70 50 220 70 50 220 70 50 220 70 50 220 70 50 220 70 50 40 50 70 40 50 70 40 50 70 40 50 70 40 50 70 40 50 70 40 50 70 40 50 70 220 70 50 220 70 50 220 70 50 220 70 50 220 70 50 220 70 50 220 70 50 220 70 50 40 50 70 40 50 70 40 50 70 40 50 70 40 50 70 40 50 70 40 50 70 40 50 70 220 70 50 220 70 50 220 70 50 220 70 50 220 70 50 220 70 50 220 70 50 220 70 50
40 50 70 40 50 70 40 50 70 40 50 70 40 50 70 40 50 70 40 50 70 40 50 70 220 70 50 220 70 50 220 70 50 220 70 50 220 70 50 220 70 50 220 70 50 220 70 50 40 50 70 40 50 70 40 50 70 40 50 70 40 50 70 40 50 70 40 50 70 40 50 70 220 70 50 220 70 50 220 70 50 220 70 50 220 70 50 220 70 50 220 70 50 220 70 50 40 50 70 40 50 70 40 50 70 40 50 70 40 50 70 40 50 70 40 50 70 40 50 70 220 70 50 220 70 50 220 70 50 220 70 50 220 70 50 220 70 50 220 70 50 220 70 50 40 50 70 40 50 70 40 50 70 40 50 70 40 50 70 40 50 70 40 50 70 40 50 70 220 70 50 220 70 50 220 70 50 220 70 50 220 70 50 220 70 50 220 70 50 220 70 50
40 50 70 40 50 70 40 50 70 40 50 70 40 50 70 40 50 70 40 50 70 40 50 70 220 70 50 220 70 50 220 70 50 220 70 50 220 70 50 220 70 50 220 70 50 220 70 50 40 50 70 40 50 70 40 50 70 40 50 70 40 50 70 40 50 70 40 50 70 40 50 70 220 70 50 220 70 50 220 70 50 220 70 50 220 70 50 220 70 50 220 70 50 220 70 50 40 50 70 40 50 70 40 50 70 40 50 70 40 50 70 40 50 70 40 50 70 40 50 70 220 70 50 220 70 50 220 70 50 220 70 50 220 70 50 220 70 50 220 70 50 220 70 50 40 50 70 40 50 70 40 50 70 40 50 70 40 50 70 40 50 70 40 50 70 40 50 70 220 70 50 220 70 50 220 70 50 220 70 50 220 70 50 220 70 50 220 70 50 220 70 50
40 50 70 40 50 70 40 50 70 40 50 70 40 50 70 40 50 70 40 50 70 40 50 70 220 70 50 220 70 50 220 70 50 220 70 50 220 70 50 220 70 50 220 70 50 220 70 50 40 50 70 40 50 70 40 50 70 40 50 70 40 50 70 40 50 70 40 50 70 40 50 70 220 70 50 220 70 50 220 70 50 220 70 50 220 70 50 220 70 50 220 70 50 220 70 50 40 50 70 40 50 70 40 50 70 40 50 70 40 50 70 40 50 70 40 50 70 40 50 70 220 70 50 220 70 50 220 70 50 220 70 50 220 70 50 220 70 50 220 70 50 220 70 50 40 50 70 40 50 70 40 50 70 40 50 70 40 50 70 40 50 70 40 50 70 40 50 70 220 70 50 220 70 50 220 70 50 220 70 50 220 70 50 220 70 50 220 70 50 220 70 50
40 50 70 40 50 70 40 50 70 40 50 70 40 50 70 40 50 70 40 50 70 40 50 70 220 70 50 220 70 50 220 70 50 220 70 50 220 70 50 220 70 50 220 70 50 220 70 50 40 50 70 40 50 70 40 50 70 40 50 70 40 50 70 40 50 70 40 50 70 40 50 70 220 70 50 220 70 50 220 70 50 220 70 50 220 70 50 220 70 50 220 70 50 220 70 50 40 50 70 40 50 70 40 50 70 40 50 70 40 50 70 40 50 70 40 50 70 40 50 70 220 70 50 220 70 50 220 70 50 220 70 50 220 70 50 220 70 50 220 70 50 220 70 50 40 50 70 40 50 70 40 50 70 40 50 70 40 50 70 40 50 70 40 50 70 40 50 70 220 70 50 220 70 50 220 70 50 220 70 50 220 70 50 220 70 50 220 70 50 220 70 50
40 50 70 40 50 70 40 50 70 40 50 70 40 50 70 40 50 70 40 50 70 40 50 70 220 70 50 220 70 50 220 70 50 220 70 50 220 70 50 220 70 50 220 70 50 220 70 50 40 50 70 40 50 70 40 50 70 40 50 70 40 50 70 40 50 70 40 50 70 40 50 70 220 70 50 220 70 50 220 70 50 220 70 50 220 70 50 220 70 50 220 70 50 220 70 50 40 50 70 40 50 70 40 50 70 40 50 70 40 50 70 40 50 70 40 50 70 40 50 70 220 70 50 220 70 50 220 70 50 220 70 50 220 70 50 220 70 50 220 70 50 220 70 50 40 50 70 40 50 70 40 50 70 40 50 70 40 50 70 40 50 70 40 50 70 40 50 70 220 70 50 220 70 50 220 70 50 220 70 50 220 70 50 220 70 50 220 70 50 220 70 50
40 50 70 40 50 70 40 50 70 40 50 70 40 50 70 40 50 70 40 50 70 40 50 70 220 70 50 220 70 50 220 70 50 220 70 50 220 70 50 220 70 50 220 70 50 220 70 50 40 50 70 40 50 70 40 50 70 40 50 70 40 50 70 40 50 70 40 50 70 40 50 70 220 70 50 220 70 50 220 70 50 220 70 50 220 70 50 220 70 50 220 70 50 220 70 50 40 50 70 40 50 70 40 50 70 40 50 70 40 50 70 40 50 70 40 50 70 40 50 70 220 70 50 220 70 50 220 70 50 220 70 50 220 70 50 220 70 50 220 70 50 220 70 50 40 50 70 40 50 70 40 50 70 40 50 70 40 50 70 40 50 70 40 50 70 40 50 70 220 70 50 220 70 50 220 70 50 220 70 50 220 70 50 220 70 50 220 70 50 220 70 50
40 50 70 40 50 70 40 50 70 40 50 70 40 50 70 40 50 70 40 50 70 40 50 70 220 70 50 220 70 50 220 70 50 220 70 50 220 70 50 220 70 50 220 70 50 220 70 50 40 50 70 40 50 70 40 50 70 40 50 70 40 50 70 40 50 70 40 50 70 40 50 70 220 70 50 220 70 50 220 70 50 220 70 50 220 70 50 220 70 50 220 70 50 220 70 50 40 50 70 40 50 70 40 50 70 40 50 70 40 50 70 40 50 70 40 50 70 40 50 70 220 70 50 220 70 50 220 70 50 220 70 50 220 70 50 220 70 50 220 70 50 220 70 50 40 50 70 40 50 70 40 50 70 40 50 70 40 50 70 40 50 70 40 50 70 40 50 70 220 70 50 220 70 50 220 70 50 220 70 50 220 70 50 220 70 50 220 70 50 220 70 50
220 70 50 220 70 50 220 70 50 220 70 50 220 70 50 220 70 50 220 70 50 220 70 50 40 50 70 40 50 70 40 50 70 40 50 70 40 50 70 40 50 70 40 50 70 40 50 70 220 70 50 220 70 50 220 70 50 220 70 50 220 70 50 220 70 50 220 70 50 220 70 50 40 50 70 40 50 70 40 50 70 40 50 70 40 50 70 40 50 70 40 50 70 40 50 70 220 70 50 220 70 50 220 70 50 220 70 50 220 70 50 220 70 50 220 70 50 220 70 50 40 50 70 40 50 70 40 50 70 40 50 70 40 50 70 40 50 70 40 50 70 40 50 70 220 70 50 220 70 50 220 70 50 220 70 50 220 70 50 220 70 50 220 70 50 220 70 50 40 50 70 40 50 70 40 50 70 40 50 70 40 50 70 40 50 70 40 50 70 40 50 70
220 70 50 220 70 50 220 70 50 220 70 50 220 70 50 220 70 50 220 70 50 220 70 50 40 50 70 40 50 70 40 50 70 40 50 70 40 50 70 40 50 70 40 50 70 40 50 70 220 70 50 220 70 50 220 70 50 220 70 50 220 70 50 220 70 50 220 70 50 220 70 50 40 50 70 40 50 70 40 50 70 40 50 70 40 50 70 40 50 70 40 50 70 40 50 70 220 70 50 220 70 50 220 70 50 220 70 50 220 70 50 220 70 50 220 70 50 220 70 50 40 50 70 40 50 70 40 50 70 40 50 70 40 50 70 40 50 70 40 50 70 40 50 70 220 70 50 220 70 50 220 70 50 220 70 50 220 70 50 220 70 50 220 70 50 220 70 50 40 50 70 40 50 70 40 50 70 40 50 70 40 50 70 40 50 70 40 50 70 40 50 70
220 70 50 220 70 50 220 70 50 220 70 50 220 70 50 220 70 50 220 70 50 220 70 50 40 50 70 40 50 70 40 50 70 40 50 70 40 50 70 40 50 70 40 50 70 40 50 70 220 70 50 220 70 50 220 70 50 220 70 50 220 70 50 220 70 50 220 70 50 220 70 50 40 50 70 40 50 70 40 50 70 40 50 70 40 50 70 40 50 70 40 50 70 40 50 70 220 70 50 220 70 50 220 70 50 220 70 50 220 70 50 220 70 50 220 70 50 220 70 50 40 50 70 40 50 70 40 50 70 40 50 70 40 50 70 40 50 70 40 50 70 40 50 70 220 70 50 220 70 50 220 70 50 220 70 50 220 70 50 220 70 50 220 70 50 220 70 50 40 50 70 40 50 70 40 50 70 40 50 70 40 50 70 40 50 70 40 50 70 40 50 70
220 70 50 220 70 50 220 70 50 220 70 50 220 70 50 220 70 50 220 70 50 220 70 50 40 50 70 40 50 70 40 50 70 40 50 70 40 50 70 40 50 70 40 50 70 40 50 70 220 70 50 220 70 50 220 70 50 220 70 50 220 70 50 220 70 50 220 70 50 220 70 50 40 50 70 40 50 70 40 50 70 40 50 70 40 50 70 40 50 70 40 50 70 40 50 70 220 70 50 220 70 50 220 70 50 220 70 50 220 70 50 220 70 50 220 70 50 220 70 50 40 50 70 40 50 70 40 50 70 40 50 70 40 50 70 40 50 70 40 50 70 40 50 70 220 70 50 220 70 50 220 70 50 220 70 50 220 70 50 220 70 50 220 70 50 220 70 50 40 50 70 40 50 70 40 50 70 40 50 70 40 50 70 40 50 70 40 50 70 40 50 70
220 70 50 220 70 50 220 70 50 220 70 50 220 70 50 220 70 50 220 70 50 220 70 50 40 50 70 40 50 70 40 50 70 40 50 70 40 50 70 40 50 70 40 50 70 40 50 70 220 70 50 220 70 50 220 70 50 220 70 50 220 70 50 220 70 50 220 70 50 220 70 50 40 50 70 40 50 70 40 50 70 40 50 70 40 50 70 40 50 70 40 50 70 40 50 70 220 70 50 220 70 50 220 70 50 220 70 50 220 70 50 220 70 50 220 70 50 220 70 50 40 50 70 40 50 70 40 50 70 40 50 70 40 50 70 40 50 70 40 50 70 40 50 70 220 70 50 220 70 50 220 70 50 220 70 50 220 70 50 220 70 50 220 70 50 220 70 50 40 50 70 40 50 70 40 50 70 40 50 70 40 50 70 40 50 70 40 50 70 40 50 70
220 70 50 220 70 50 220 70 50 220 70 50 220 70 50 220 70 50 220 70 50 220 70 50 40 50 70 40 50 70 40 50 70 40 50 70 40 50 70 40 50 70 40 50 70 40 50 70 220 70 50 220 70 50 220 70 50 220 70 50 220 70 50 220 70 50 220 70 50 220 70 50 40 50 70 40 50 70 40 50 70 40 50 70 40 50 70 40 50 70 40 50 70 40 50 70 220 70 50 220 70 50 220 70 50 220 70 50 220 70 50 220 70 50 220 70 50 220 70 50 40 50 70 40 50 70 40 50 70 40 50 70 40 50 70 40 50 70 40 50 70 40 50 70 220 70 50 220 70 50 220 70 50 220 70 50 220 70 50 220 70 50 220 70 50 220 70 50 40 50 70 40 50 70 40 50 70 40 50 70 40 50 70 40 50 70 40 50 70 40 50 70
220 70 50 220 70 50 220 70 50 220 70 50 220 70 50 220 70 50 220 70 50 220 70 50 40 50 70 40 50 70 40 50 70 40 50 70 40 50 70 40 50 70 40 50 70 40 50 70 220 70 50 220 70 50 220 70 50 220 70 50 220 70 50 220 70 50 220 70 50 220 70 50 40 50 70 40 50 70 40 50 70 40 50 70 40 50 70 40 50 70 40 50 70 40 50 70 220 70 50 220 70 50 220 70 50 220 70 50 220 70 50 220 70 50 220 70 50 220 70 50 40 50 70 40 50 70 40 50 70 40 50 70 40 50 70 40 50 70 40 50 70 40 50 70 220 70 50 220 70 50 220 70 50 220 70 50 220 70 50 220 70 50 220 70 50 220 70 50 40 50 70 40 50 70 40 50 70 40 50 70 40 50 70 40 50 70 40 50 70 40 50 70
220 70 50 220 70 50 220 70 50 220 70 50 220 70 50 220 70 50 220 70 50 220 70 50 40 50 70 40 50 70 40 50 70 40 50 70 40 50 70 40 50 70 40 50 70 40 50 70 220 70 50 220 70 50 220 70 50 220 70 50 220 70 50 220 70 50 220 70 50 220 70 50 40 50 70 40 50 70 40 50 70 40 50 70 40 50 70 40 50 70 40 50 70 40 50 70 220 70 50 220 70 50 220 70 50 220 70 50 220 70 50 220 70 50 220 70 50 220 70 50 40 50 70 40 50 70 40 50 70 40 50 70 40 50 70 40 50 70 40 50 70 40 50 70 220 70 50 220 70 50 220 70 50 220 70 50 220 70 50 220 70 50 220 70 50 220 70 50 40 50 70 40 50 70 40 50 70 40 50 70 40 50 70 40 50 70 40 50 70 40 50 70
40 50 70 40 50 70 40 50 70 40 50 70 40 50 70 40 50 70 40 50 70 40 50 70 220 70 50 220 70 50 220 70 50 220 70 50 220 70 50 220 70 50 220 70 50 220 70 50 40 50 70 40 50 70 40 50 70 40 50 70 40 50 70 40 50 70 40 50 70 40 50 70 220 70 50 220 70 50 220 70 50 220 70 50 220 70 50 220 70 50 220 70 50 220 70 50 40 50 70 40 50 70 40 50 70 40 50 70 40 50 70 40 50 70 40 50 70 40 50 70 220 70 50 220 70 50 220 70 50 220 70 50 220 70 50 220 70 50 220 70 50 220 70 50 40 50 70 40 50 70 40 50 70 40 50 70 40 50 70 40 50 70 40 50 70 40 50 70 220 70 50 220 70 50 220 70 50 220 70 50 220 70 50 220 70 50 220 70 50 220 70 50
40 50 70 40 50 70 40 50 70 40 50 70 40 50 70 40 50 70 40 50 70 40 50 70 220 70 50 220 70 50 220 70 50 220 70 50 220 70 50 220 70 50 220 70 50 220 70 50 40 50 70 40 50 70 40 50 70 40 50 70 40 50 70 40 50 70 40 50 70 40 50 70 220 70 50 220 70 50 220 70 50 220 70 50 220 70 50 220 70 50 220 70 50 220 70 50 40 50 70 40 50 70 40 50 70 40 50 70 40 50 70 40 50 70 40 50 70 40 50 70 220 70 50 220 70 50 220 70 50 220 70 50 220 70 50 220 70 50 220 70 50 220 70 50 40 50 70 40 50 70 40 50 70 40 50 70 40 50 70 40 50 70 40 50 70 40 50 70 220 70 50 220 70 50 220 70 50 220 70 50 220 70 50 220 70 50 220 70 50 220 70 50
40 50 70 40 50 70 40 50 70 40 50 70 40 50 70 40 50 70 40 50 70 40 50 70 220 70 50 220 70 50 220 70 50 220 70 50 220 70 50 220 70 50 220 70 50 220 70 50 40 50 70 40 50 70 40 50 70 40 50 70 40 50 70 40 50 70 40 50 70 40 50 70 220 70 50 220 70 50 220 70 50 220 70 50 220 70 50 220 70 50 220 70 50 220 70 50 40 50 70 40 50 70 40 50 70 40 50 70 40 50 70 40 50 70 40 50 70 40 50 70 220 70 50 220 70 50 220 70 50 220 70 50 220 70 50 220 70 50 220 70 50 220 70 50 40 50 70 40 50 70 40 50 70 40 50 70 40 50 70 40 50 70 40 50 70 40 50 70 220 70 50 220 70 50 220 70 50 220 70 50 220 70 50 220 70 50 220 70 50 220 70 50
40 50 70 40 50 70 40 50 70 40 50 70 40 50 70 40 50 70 40 50 70 40 50 70 220 70 50 220 70 50 220 70 50 220 70 50 220 70 50 220 70 50 220 70 50 220 70 50 40 50 70 40 50 70 40 50 70 40 50 70 40 50 70 40 50 70 40 50 70 40 50 70 220 70 50 220 70 50 220 70 50 220 70 50 220 70 50 220 70 50 220 70 50 220 70 50 40 50 70 40 50 70 40 50 70 40 50 70 40 50 70 40 50 70 40 50 70 40 50 70 220 70 50 220 70 50 220 70 50 220 70 50 220 70 50 220 70 50 220 70 50 220 70 50 40 50 70 40 50 70 40 50 70 40 50 70 40 50 70 40 50 70 40 50 70 40 50 70 220 70 50 220 70 50 220 70 50 220 70 50 220 70 50 220 70 50 220 70 50 220 70 50
40 50 70 40 50 70 40 50 70 40 50 70 40 50 70 40 50 70 40 50 70 40 50 70 220 70 50 220 70 50 220 70 50 220 70 50 220 70 50 220 70 50 220 70 50 220 70 50 40 50 70 40 50 70 40 50 70 40 50 70 40 50 70 40 50 70 40 50 70 40 50 70 220 70 50 220 70 50 220 70 50 220 70 50 220 70 50 220 70 50 220 70 50 220 70 50 40 50 70 40 50 70 40 50 70 40 50 70 40 50 70 40 50 70 40 50 70 40 50 70 220 70 50 220 70 50 220 70 50 220 70 50 220 70 50 220 70 50 220 70 50 220 70 50 40 50 70 40 50 70 40 50 70 40 50 70 40 50 70 40 50 70 40 50 70 40 50 70 220 70 50 220 70 50 220 70 50 220 70 50 220 70 50 220 70 50 220 70 50 220 70 50
40 50 70 40 50 70 40 50 70 40 50 70 40 50 70 40 50 70 40 50 70 40 50 70 220 70 50 220 70 50 220 70 50 220 70 50 220 70 50 220 70 50 220 70 50 220 70 50 40 50 70 40 50 70 40 50 70 40 50 70 40 50 70 40 50 70 40 50 70 40 50 70 220 70 50 220 70 50 220 70 50 220 70 50 220 70 50 220 70 50 220 70 50 220 70 50 40 50 70 40 50 70 40 50 70 40 50 70 40 50 70 40 50 70 40 50 70 40 50 70 220 70 50 220 70 50 220 70 50 220 70 50 220 70 50 220 70 50 220 70 50 220 70 50 40 50 70 40 50 70 40 50 70 40 50 70 40 50 70 40 50 70 40 50 70 40 50 70 220 70 50 220 70 50 220 70 50 220 70 50 220 70 50 220 70 50 220 70 50 220 70 50
40 50 70 40 50 70 40 50 70 40 50 70 40 50 70 40 50 70 40 50 70 40 50 70 220 70 50 220 70 50 220 70 50 220 70 50 220 70 50 220 70 50 220 70 50 220 70 50 40 50 70 40 50 70 40 50 70 40 50 70 40 50 70 40 50 70 40 50 70 40 50 70 220 70 50 220 70 50 220 70 50 220 70 50 220 70 50 220 70 50 220 70 50 220 70 50 40 50 70 40 50 70 40 50 70 40 50 70 40 50 70 40 50 70 40 50 70 40 50 70 220 70 50 220 70 50 220 70 50 220 70 50 220 70 50 220 70 50 220 70 50 220 70 50 40 50 70 40 50 70 40 50 70 40 50 70 40 50 70 40 50 70 40 50 70 40 50 70 220 70 50 220 70 50 220 70 50 220 70 50 220 70 50 220 70 50 220 70 50 220 70 50
40 50 70 40 50 70 40 50 70 40 50 70 40 50 70 40 50 70 40 50 70 40 50 70 220 70 50 220 70 50 220 70 50 220 70 50 220 70 50 220 70 50 220 70 50 220 70 50 40 50 70 40 50 70 40 50 70 40 50 70 40 50 70 40 50 70 40 50 70 40 50 70 220 70 50 220 70 50 220 70 50 220 70 50 220 70 50 220 70 50 220 70 50 220 70 50 40 50 70 40 50 70 40 50 70 40 50 70 40 50 70 40 50 70 40 50 70 40 50 70 220 70 50 220 70 50 220 70 50 220 70 50 220 70 50 220 70 50 220 70 50 220 70 50 40 50 70 40 50 70 40 50 70 40 50 70 40 50 70 40 50 70 40 50 70 40 50 70 220 70 50 220 70 50 220 70 50 220 70 50 220 70 50 220 70 50 220 70 50 220 70 50
